Breeze Round Light/actions/32/document-edit-sign.svg

<svg xmlns="http://www.w3.org/2000/svg" viewBox="0 0 32 32">
  <defs
     id="defs3051">
<style type="text/css" id="current-color-scheme">.ColorScheme-Text {color:#fcfcfc;}</style>
  </defs>
  <path
     style="fill:currentColor;fill-opacity:1;stroke:none" 
     d="m 6,8 c 0,4 0,12 0,16 0,4 4,4 4,4 h 3 V 27 H 10 C 10,27 7,27 7,24 7,21 7,11 7,8 7,5 10,5 10,5 h 8 v 7 h 7 v 4 h 1 V 11 L 19,4 H 18 10 C 10,4 6,4 6,8 Z M 22.398438,16 17.287109,21.111328 14,24.398438 V 28 h 3.601562 L 26,19.601562 Z m -2.048829,3.490234 2.160157,2.160157 -3.173828,3.173828 v -0.673828 l -1.013672,0.02344 h -1.035157 v -1.037109 -0.583985 z m -4.076171,4.074219 v 1.621094 h 2.027343 l 0.02148,0.654297 -1.082032,1.080078 h -1.439453 l -0.720703,-0.720703 v -1.441407 z"
     id="path8" 
     class="ColorScheme-Text"
     />
</svg>

<svg xmlns="http://www.w3.org/2000/svg" viewBox="0 0 32 32">
  <defs
     id="defs3051">
    <style
       type="text/css"
       id="current-color-scheme">
      .ColorScheme-Text {
        color:#232629;
      }
      </style>
  </defs>
  <path
     style="fill:currentColor;fill-opacity:1;stroke:none" 
     d="M 6 4 L 6 28 L 13 28 L 13 27 L 7 27 L 7 5 L 18 5 L 18 12 L 25 12 L 25 16 L 26 16 L 26 11 L 19 4 L 18 4 L 6 4 z M 22.398438 16 L 17.287109 21.111328 L 14 24.398438 L 14 28 L 17.601562 28 L 26 19.601562 L 22.398438 16 z M 20.349609 19.490234 L 22.509766 21.650391 L 19.335938 24.824219 L 19.335938 24.150391 L 18.322266 24.173828 L 17.287109 24.173828 L 17.287109 23.136719 L 17.287109 22.552734 L 20.349609 19.490234 z M 16.273438 23.564453 L 16.273438 25.185547 L 18.300781 25.185547 L 18.322266 25.839844 L 17.240234 26.919922 L 15.800781 26.919922 L 15.080078 26.199219 L 15.080078 24.757812 L 16.273438 23.564453 z "
     id="path8" 
     class="ColorScheme-Text"
     />
</svg>
